WorldWind/resources/milstd2525/metoc/wos-tccw--p----.svg

<?xml version="1.0" encoding="UTF-8" standalone="no"?>
<!-- SVG content generated using Symbology Configuration Management System (SCMS) -->

<!-- Systematic Software Engineering Ltd. - www.systematic.co.uk - do not remove  -->

<svg
    xmlns:dc="http://purl.org/dc/elements/1.1/"
    xmlns:cc="http://creativecommons.org/ns#"
    xmlns:rdf="http://www.w3.org/1999/02/22-rdf-syntax-ns#"
    xmlns:svg="http://www.w3.org/2000/svg"
    xmlns="http://www.w3.org/2000/svg"
    xmlns:sodipodi="http://sodipodi.sourceforge.net/DTD/sodipodi-0.dtd"
    xmlns:inkscape="http://www.inkscape.org/namespaces/inkscape"
    id="WOS-TCCW--P----"
    width="306.5"
    height="106.55734"
    viewBox="0 0 306.5 106.55734"
    version="1.1"
    inkscape:version="0.48.2 r9819"
    sodipodi:docname="wos-tccw--p----.svg">
    <metadata
        id="metadata12">
        <rdf:RDF>
            <cc:Work
                rdf:about="">
                <dc:format>image/svg+xml</dc:format>
                <dc:type
                    rdf:resource="http://purl.org/dc/dcmitype/StillImage"/>
            </cc:Work>
        </rdf:RDF>
    </metadata>
    <defs
        id="defs10"/>
    <sodipodi:namedview
        pagecolor="#ffffff"
        bordercolor="#666666"
        borderopacity="1"
        objecttolerance="10"
        gridtolerance="10"
        guidetolerance="10"
        inkscape:pageopacity="0"
        inkscape:pageshadow="2"
        inkscape:window-width="640"
        inkscape:window-height="480"
        id="namedview8"
        showgrid="false"
        inkscape:zoom="0.59"
        inkscape:cx="154"
        inkscape:cy="53"
        inkscape:window-x="0"
        inkscape:window-y="0"
        inkscape:window-maximized="0"
        inkscape:current-layer="WOS-TCCW--P----"/>
    <g
        id="g3"
        transform="translate(-46,-146.44266)">
        <svg
            viewBox="0 0 400 400"
            id="_0.WOS-TCCW--P----"
            width="400"
            height="400"
            version="1.1"
            inkscape:version="0.48.2 r9819">
            <path
                d="m 48.5,250.5 c 34.394,-12.049 46.784,-101.958 67.111,-101.556 6.655,0.132 11.574,3.406 12.445,6.889 9.553,38.215 -54.7431,18.148 21.944,94.167 32.894,-11.549 45.284,-101.458 65.611,-101.056 6.655,0.132 11.574,3.406 12.445,6.889 9.553,38.215 -54.743,18.148 21.944,94.167 32.894,-11.549 45.284,-101.458 65.611,-101.056 6.655,0.132 11.574,3.406 12.445,6.889 9.553,38.215 -54.743,18.148 21.944,94.167"
                style="fill:none;stroke:#808080;stroke-width:5"
                id="path6"
                inkscape:connector-curvature="0"/>
        </svg>
    </g>
</svg>

<?xml version="1.0"?>
<!DOCTYPE svg PUBLIC "-//W3C//DTD SVG 1.1//EN" "http://www.w3.org/Graphics/SVG/1.1/DTD/svg11.dtd" >
<!-- SVG content generated using Symbology Configuration Management System (SCMS) -->
<!-- Systematic Software Engineering Ltd. - www.systematic.co.uk - do not remove  -->
<svg id="WOS-TCCW--P----" width="400px" height="400px" viewBox="0 0 400 400">
    <g>
        <svg viewBox="0 0 400 400" id="_0.WOS-TCCW--P----" width="400px" height="400px">
            <path d="M48.5 250.5 C82.894 238.451 95.284 148.542 115.611 148.944 C122.266 149.076 127.185
			152.35 128.056 155.833 C137.609 194.048 73.3129 173.981 150 250 C182.894 238.451
			195.284 148.542 215.611 148.944 C222.266 149.076 227.185 152.35 228.056
			155.833 C237.609 194.048 173.313 173.981 250 250 C282.894 238.451 295.284 148.542
			315.611 148.944 C322.266 149.076 327.185 152.35 328.056 155.833 C337.609
			194.048 273.313 173.981 350 250" style="fill:none;stroke:rgb(128,128,128);stroke-width:5"></path>
        </svg>

    </g>
</svg>
